!!!OTL: Jungfer Doertchen.
!!!OTL-incipit: Es war ein Jaeger wohlgemut,
!!!ARE: Europa, Mitteleuropa, Deutschland (BRD), Rheinland
!!!YOR: 3, S. 103
!!    ????
!!!SCT: Q0057U
!!!TXL: @@DE
!!!YEM: Copyright 1995, estate of Helmut Schaffrath.
**kern	**text
*ICvox	*
*M6/8	*
*k[f#]	*
*G:	*
!LO:TX:a:t=Rheinland	!
{8d	Es
4g	war
8b	ein
=1	=1
4dd	Jä-
8dd	-ger
4a	wohl-
16bL	-ge-
16aJ	.
=2	=2
4g}	-mut,
{8a	der
4b	trug
8ee	ʒwei
=3	=3
8dd	Fe-
8dd	-dern
8dd	auf
4cc	ſei-
8dd	-nem
=4	=4
4b}	Hut;
{8g	die
8g	ei-
8b	-ne
8ee	war
=5	=5
8eeL	ſchwarʒ,
8ddJ	.
8b	die
4b	an-
8dd	-dre
=6	=6
4dd}	rot
{8b	'Mir
8a	deuch-
8a	-te,
8a	mir
=7	=7
8ee	deuch-
8dd	-te,
8b	mein
8dd	Schätʒ-
8dd	-chen
16ddL	ſei
16ccJ	.
=8	=8
4b;}	tot.
{8g	die
8g	ei-
8b	-ne
8ee	war
=9	=9
8eeL	ſchwarʒ,
8ddJ	.
8b	die
4b	an-
8dd	-dre
=10	=10
4dd}	rot
{8b	'Mir
8a	deuch-
8a	-te,
8a	mir
=11	=11
8ee	deuch-
8dd	-te,
8b	mein
8dd	Schätʒ-
8dd	-chen
16ddL	ſei
16ccJ	.
=12	=12
4b;}	tot.'
==	==
!!!AGN: Ballade, Todesahnung, Tod, Selbstmord
!!!ONB: ESAC (Essen Associative Code) Database: BALLADE
!!!AMT: compound duple
!!!AIN: vox
!!!EED: Helmut Schaffrath
!!!EEV: 1.0
!!!source: Deutsche Volkslieder mit ihren Melodien. Herausgegeben vom Deutschen Volksliedarchiv. Dritter Band Balladen. Berlin 1954.
!!!page: 103
!!!ENC: Anna Maria Matuszewska
!!!EEV: 2025/02/18
*-	*-
